X:746
T:Fire On the Mountain
B:Appalachian Fiddle (1973)
Z:Nigel Gatherer
N:Transposed from A for comparison
M:2/4
L:1/8
K:G
d/e/d/c/ Bc       | dg ec       | d/e/d/c/ B/A/G | AF    G2 |
dd/c/    B/A/B/c/ | dg e/d/c/e/ | d/e/d/c/ BG    | A/G/F G2 |]
<end>
<start>
